src/pos-icons/checkbox-blank-off.svg

<svg height="24" viewBox="0 0 24 24" width="24" xmlns="http://www.w3.org/2000/svg"><path d="m20.84 22.73-1.74-1.73c-.04 0-.07 0-.1 0h-14c-1.1 0-2-.89-2-2v-14c0-.03 0-.06 0-.1l-1.89-1.9 1.28-1.27 19.72 19.73zm.16-17.73c0-1.11-.9-2-2-2h-12.8l14.8 14.8z"/></svg>

<?xml version="1.0" encoding="UTF-8"?><!DOCTYPE svg PUBLIC "-//W3C//DTD SVG 1.1//EN" "http://www.w3.org/Graphics/SVG/1.1/DTD/svg11.dtd"><svg xmlns="http://www.w3.org/2000/svg" xmlns:xlink="http://www.w3.org/1999/xlink" version="1.1" id="mdi-checkbox-blank-off" width="24" height="24" viewBox="0 0 24 24"><path d="M20.84 22.73L19.1 21C19.06 21 19.03 21 19 21H5C3.9 21 3 20.11 3 19V5C3 4.97 3 4.94 3 4.9L1.11 3L2.39 1.73L22.11 21.46L20.84 22.73M21 5C21 3.89 20.1 3 19 3H6.2L21 17.8V5Z" /></svg>
